X:1
T:Die Abendglocken
T:Franz Abt
T:Wilhelm Floto
T:Die Abendglocken
T:CPDL - Creative Commons Attribution Non Commercial 3.0
T:CPDL - Creative Commons Attribution Non Commercial 3.0
C:Franz Abt
Z:Wilhelm Floto
Z:CPDL - Creative Commons Attribution Non Commercial 3.0
%%score [ ( 1 2 ) ( 3 4 ) ]
L:1/8
Q:1/4=60
M:4/4
K:Eb
V:1 treble nm="Sopran\nAlt"
V:2 treble 
V:3 bass nm="Tenor\nBass"
V:4 bass 
V:1
!p!"^Langsam" G2 | G3 G B2 B2 | e4 !breath!G2 G2 | c3 c B2 A2 | G4- G z!p! G2 | B3 B B3 B | %6
w: 1.~Die|A- bend- glo- cken|ru- fen das|wei- te Tal zur|Ruh', _ die|Her- den von den|
w: 2.~Da|schmü- cket sich der|Him- mel mit|Ster- nen groß und|klein, _ da|kommt der Mond ge-|
 (=A2 B2) !breath!c2 d2 |!f! e3!p!!>(! c B2 =A2!>)! | B4- B z!pp! B2 | B2 f2 ed cB | %10
w: Ber- * gen, sie|ziehn dem Dörf- chen|zu. _ Welch|fei- er- li- * ches *|
w: zo- * gen in|hel- lem De- mant-|schein. _ Wo-|hin ich im- * mer *|
!<(! (B2 e2) !breath!B2!<)! B2 |!>(! B2!>)! f2 ed cB |!<(! (B2 e2)!<)! !breath!B2!>(! B2!>)! | %13
w: Schwei- * gen! Die|Blu- men fromm * sich *|nei- * gen; sie|
w: spä- * he, fühlt|al- les dei- * ne *|Nä- * he, fühlt|
"^cresc." c3 c d2 d2 |!f! !breath!e6 G2 | A3 A B3 B |!ff! c8- | c2 z2!pp! c4 | B4!<(! B4 | %19
w: kommt in ih- rer|Pracht, sie|kommt in ih- rer|Pracht,|_ die|stil- le|
w: al- les dei- ne|Macht, fühlt|al- les dei- ne|Macht,|_ o|stil- le|
 !breath!c4!<)! (d2 e2) |!pp! B4 B4 | !fermata!B6 |] %22
w: Nacht, die *|stil- le|Nacht.|
w: Nacht, o _|stil- le|Nacht!|
V:2
 E2 | E3 E F2 F2 | E4 E2 E2 | E3 E D2 D2 | E4- E x E2 | G3 G F3 F | (E2 D2) F2 F2 | G3 G F2 E2 | %8
 D4- D x F2 | D3 D F2 D2 | (E2 G2) FE DE | D3 D F2 D2 | (E2 G2) FE DE | E3 E G2 G2 | G6 E2 | %15
 E3 E E3 E | E8- | E2 x2 (F2 E2) | D4 E4 | E4 (D2 C2) | (B,2 E4) D2 | E6 |] %22
V:3
!p! B,2 | B,3 B, B,2 F,2 | (G,2 A,2) !breath!B,2 G,2 | F,3 F, F,2 B,2 | B,4- B, z!p! B,2 | %5
 B,3 B, B,3 B, | F,4 !breath!C2 B,2 |!f! B,3!p!!>(! C D2 C2!>)! | B,4- B, z!pp! B,2 | %9
 A,3 A, A,2 A,2 |!<(! (G,2 B,2) !breath!B,2!<)! A,G, | A,3 A, A,2 A,2 | %12
!<(! (G,2 B,2)!<)! !breath!B,2!>(! A,G,!>)! |"^cresc." A,3 C =B,2 B,2 |!f! !breath!C6 _B,2 | %15
 A,3 A, G,3 G, |!ff! A,8- | A,2 z2!pp! A,4 | A,4!<(! G,4 | !breath!A,4!<)! _G,4 |!pp! =G,4 A,4 | %21
 !fermata!G,6 |] %22
V:4
 E,2 | E,3 E, D,2 D,2 | C,4 B,,2 B,,2 | A,,3 A,, B,,2 B,,2 | E,4- E, x E,2 | E,3 E, D,2 D,2 | %6
w: ||||||
w: ||||||
 (C,2 B,,2) =A,,2 B,,2 | E,3 E, F,2 F,2 | B,,2 B,,2 F,2 D,2 | B,,4 B,,4 | (E,2 B,2) A,G, F,E, | %11
w: ||* 1.~Welch fei- er-|li- ches|Schwei- * gen! * * *|
w: ||* 2.~Wo- hin ich|im- mer|spä- * he, * * *|
 B,,3 B,, B,,2 B,,2 | (E,2 B,2) A,G, F,E, | A,3 A, G,2 G,2 | C,6 _D,2 | C,3 C, B,,3 B,, | A,,8- | %17
w: ||||||
w: ||||||
 A,,2 x2 F,4 | B,,4 E,4 | A,,4 =A,,4 | B,,4 B,,4 | E,6 |] %22
w: |||||
w: |||||

